symbolic/64x64/apps/mpdevil.svg

<svg xmlns="http://www.w3.org/2000/svg" width="64" height="64" version="1.1">
 <path style="opacity:0.2" d="M 31.974685,6.0000001 C 16.626627,6.0285423 4.1717522,18.736473 4.1717778,34.478 H 8.399959 C 8.3995658,20.570688 18.346659,10.105864 31.905705,10 c 0.06294,-2.47e-4 0.12586,-2.47e-4 0.1888,0 13.63248,-10e-7 23.505454,10.495772 23.505454,24.478 h 4.22381 c 0,-15.761714 -12.43048,-28.4779999 -27.798248,-28.4779999 h -0.05028 z"/>
 <circle style="opacity:0.2" cx="39.51" cy="30.115" r="22" transform="rotate(12.584)"/>
 <path style="fill:#3d3846" d="M 31.974685,5.0000001 C 16.626627,5.0285423 4.1717522,17.736473 4.1717778,33.478 H 8.399959 c -3.932e-4,-13.907311 9.9467,-24.3721363 23.505746,-24.4779999 0.06294,-2.466e-4 0.12586,-2.466e-4 0.1888,0 13.63248,-8e-7 23.505454,10.4957729 23.505454,24.4779999 h 4.22381 c 0,-15.761714 -12.43048,-28.4779999 -27.798248,-28.4779999 h -0.05028 z"/>
 <path style="opacity:0.1;fill:#ffffff" d="M 31.976562 5 C 16.628504 5.0285422 4.1718494 17.735036 4.171875 33.476562 L 4.1972656 33.476562 C 4.7124617 18.20126 16.955495 6.0279341 31.976562 6 L 32.027344 6 C 47.068137 6 59.285385 18.181385 59.798828 33.476562 L 59.824219 33.476562 C 59.824217 17.714849 47.395112 5 32.027344 5 L 31.976562 5 z"/>
 <path style="fill:#c01c28" d="m 12.222732,3.9993041 c 0,0 -4.819672,10.6173189 4.678401,22.2928819 l 10.209812,-4.8021 C 13.282249,15.587934 12.222732,4.0006959 12.222732,4.0006959 Z"/>
 <path style="fill:#c01c28" d="m 51.734173,3.9993041 c 0,0 4.819672,10.6173189 -4.678402,22.2928819 l -10.209812,-4.8021 C 50.674655,15.587934 51.734173,4.0006959 51.734173,4.0006959 Z"/>
 <path style="opacity:0.1;fill:#ffffff" d="M 12.222656 4 C 12.222656 4 10.99324 6.7994321 11.029297 11.064453 C 11.168457 7.3615323 12.222656 5 12.222656 5 C 12.222656 5 13.228902 15.969469 26.027344 21.998047 L 27.109375 21.488281 C 13.280677 15.586127 12.222656 4 12.222656 4 z M 51.734375 4 C 51.734375 4 50.676352 15.586127 36.847656 21.488281 L 37.929688 21.998047 C 50.728128 15.969469 51.734375 5 51.734375 5 C 51.734375 5 52.788575 7.3615323 52.927734 11.064453 C 52.963791 6.7994321 51.734375 4 51.734375 4 z"/>
 <circle style="fill:#e8303a" cx="39.292" cy="29.139" r="22" transform="rotate(12.584)"/>
 <path style="opacity:0.1;fill:#ffffff" d="M 32.431641 15.001953 A 22 22 0 0 0 30.875 15.027344 A 22 22 0 0 0 10.527344 32.207031 A 22 22 0 0 0 10.021484 37.410156 A 22 22 0 0 1 10.527344 33.207031 A 22 22 0 0 1 30.875 16.027344 A 22 22 0 0 1 36.792969 16.527344 A 22 22 0 0 1 53.960938 37.767578 A 22 22 0 0 1 53.972656 37.873047 A 22 22 0 0 0 36.792969 15.527344 A 22 22 0 0 0 32.431641 15.001953 z"/>
 <path style="opacity:0.2" d="m 12.73824,23.999999 c -0.450674,5.54e-4 -1.23317,0.252634 -1.738281,0.445312 0,0 -0.986496,0.461418 -1.2382812,0.523438 -1.2291638,0.30241 -2.6260066,0.13448 -3.75,0.671874 -0.623483,0.298108 -1.1515858,0.790096 -1.5,1.339844 -0.5078996,0.801424 -0.697664,1.459012 -0.84375,2.367188 -0.395793,2.460074 -0.6566288,4.773478 -0.6679688,8.195312 v 0.914064 c 0.01046,3.421838 0.2721758,5.735242 0.6679688,8.195312 0.146124,0.908164 0.3358504,1.565784 0.84375,2.367188 0.3484142,0.549734 0.876517,1.041736 1.5,1.339844 1.1240876,0.537388 2.5209118,0.369464 3.75,0.671874 0.2517852,0.06203 1.2382812,0.539062 1.2382812,0.539062 0.504125,0.190632 1.297119,0.429146 1.738281,0.429688 0.731391,9.16e-4 1.148541,-0.229004 1.511719,-0.78125 0.363174,-0.552246 0.76292,-1.211678 0.75,-3.238282 V 47.332031 28.667967 28.019531 c 0.01275,-2.026658 -0.386826,-2.686072 -0.75,-3.238282 -0.363178,-0.55221 -0.780328,-0.782168 -1.511719,-0.78125 z m 38.523437,0 c -0.73139,-9.18e-4 -1.152446,0.22904 -1.515624,0.78125 -0.363174,0.55221 -0.758848,1.211624 -0.746094,3.238282 v 0.648436 18.664064 0.648436 c -0.013,2.026604 0.38292,2.686036 0.746094,3.238282 0.363178,0.552246 0.784234,0.782166 1.515624,0.78125 0.441162,-5.42e-4 1.234158,-0.239056 1.738282,-0.429688 0,0 0.986496,-0.477036 1.238282,-0.539062 1.229088,-0.30241 2.625912,-0.13448 3.75,-0.671874 0.623482,-0.298106 1.151586,-0.79011 1.5,-1.339844 0.5079,-0.801404 0.693718,-1.459024 0.839842,-2.367188 0.395794,-2.46007 0.661406,-4.773474 0.671876,-8.195312 v -0.914064 c -0.0114,-3.421834 -0.276084,-5.735238 -0.671876,-8.195312 -0.14608,-0.908176 -0.331942,-1.565764 -0.839842,-2.367188 -0.348414,-0.549748 -0.876518,-1.041734 -1.5,-1.339844 -1.123994,-0.537386 -2.520836,-0.369464 -3.75,-0.671874 -0.251786,-0.06202 -1.238282,-0.523438 -1.238282,-0.523438 -0.505112,-0.192678 -1.287608,-0.444758 -1.738282,-0.445312 z"/>
 <path style="fill:#3d3846" d="m 52.998569,23.443966 v 27.124548 c 0,0 0.986508,-0.476474 1.238294,-0.5385 1.229088,-0.30241 2.626904,-0.13344 3.750992,-0.670834 0.623482,-0.298106 1.151584,-0.790136 1.499998,-1.33987 0.5079,-0.801404 0.695658,-1.458046 0.841782,-2.36621 0.395792,-2.46007 0.658464,-4.773732 0.668934,-8.19557 V 36.542834 C 60.987169,33.121 60.725427,30.806472 60.329635,28.346398 60.183555,27.438222 59.995753,26.782478 59.487853,25.981054 59.139439,25.431306 58.611337,24.939276 57.987855,24.641168 56.863861,24.10378 55.466027,24.272746 54.236863,23.970336 53.985077,23.908316 52.998569,23.44431 52.998569,23.44431 Z"/>
 <path style="fill:#9a9996" d="m 51.261863,23.000284 c -0.73139,-9.18e-4 -1.151712,0.228004 -1.51489,0.780214 -0.363174,0.55221 -0.760852,1.21362 -0.748098,3.240278 l 0.0011,0.646218 h -0.0011 v 18.66629 h 0.0011 l -0.0011,0.64714 c -0.013,2.026604 0.384924,2.688028 0.748098,3.240274 0.363178,0.552246 0.7835,0.780216 1.51489,0.7793 0.441162,-5.42e-4 1.232582,-0.240852 1.736706,-0.431484 V 23.44431 C 52.493457,23.251632 51.712537,23.000554 51.261863,23 Z"/>
 <circle style="opacity:0.4" cx="29.5" cy="41.5" r="1.5"/>
 <circle style="opacity:0.4" cx="34.5" cy="41.5" r="1.5"/>
 <path style="opacity:0.2" d="m 22.999959,26 a 6,6 0 0 0 -6,6 6,6 0 0 0 6,6 6,6 0 0 0 6,-6 6,6 0 0 0 -6,-6 z m 18,0 a 6,6 0 0 0 -6,6 6,6 0 0 0 6,6 6,6 0 0 0 6,-6 6,6 0 0 0 -6,-6 z"/>
 <circle style="fill:#f6f5f4" cx="41" cy="31" r="6"/>
 <circle style="fill:#241f31" cx="41" cy="30" r="3"/>
 <circle style="fill:#f6f5f4" cx="23" cy="31" r="6"/>
 <circle style="fill:#241f31" cx="23" cy="30" r="3"/>
 <path style="fill:#3d3846" d="m 10.999959,23.443966 v 27.124548 c 0,0 -0.986509,-0.476474 -1.2382946,-0.5385 C 8.5325762,49.727604 7.134761,49.896568 6.0106734,49.35918 5.3871904,49.061074 4.8590884,48.569044 4.5106742,48.01931 4.0027746,47.217906 3.815017,46.561264 3.6688932,45.6531 3.2731002,43.19303 3.0104288,40.879368 2.999959,37.45753 V 36.542834 C 3.011299,33.121 3.2731002,30.806472 3.6688932,28.346398 3.8149792,27.438222 4.0027746,26.782478 4.5106742,25.981054 4.8590884,25.431306 5.3871904,24.939276 6.0106734,24.641168 7.1346668,24.10378 8.5325006,24.272746 9.7616644,23.970336 10.01345,23.908316 10.999959,23.44431 10.999959,23.44431 Z"/>
 <path style="fill:#9a9996" d="m 12.736665,23.000284 c 0.731391,-9.18e-4 1.151712,0.228004 1.51489,0.780214 0.363174,0.55221 0.760852,1.21362 0.748098,3.240278 l -0.0011,0.646218 h 0.0011 v 18.66629 h -0.0011 l 0.0011,0.64714 c 0.01292,2.026604 -0.384924,2.688028 -0.748098,3.240274 -0.363178,0.552246 -0.783499,0.780216 -1.51489,0.7793 -0.441162,-5.42e-4 -1.232581,-0.240852 -1.736706,-0.431484 V 23.44431 C 11.50507,23.251632 12.285991,23.000554 12.736665,23 Z"/>
 <path style="opacity:0.4" d="m 26.471151,42.84805 c -5.66803,0.0844 -4.28659,2.532972 -5.35208,4.471164 -0.521428,0.94848 0.753286,-0.10848 2.187028,-1.428868 2.254506,3.48511 6.391332,6.78243 13.643942,4.16753 -6.465408,-0.46013 -10.40838,-2.733252 -12.77302,-4.99222 1.187372,-1.127072 2.29413,-2.217552 2.29413,-2.217552 z"/>
 <path style="opacity:0.1;fill:#ffffff" d="M 12.738281 23 C 12.287607 23.000554 11.505111 23.252634 11 23.445312 C 11 23.445312 10.013504 23.90673 9.7617188 23.96875 C 8.5325549 24.27116 7.1357121 24.103231 6.0117188 24.640625 C 5.3882357 24.938735 4.8601329 25.430721 4.5117188 25.980469 C 4.0038191 26.781893 3.8140547 27.43948 3.6679688 28.347656 C 3.2721758 30.80773 3.01134 33.121135 3 36.542969 L 3 37.457031 C 3.0000473 37.472475 2.9998562 37.484972 3 37.5 C 3.0135285 34.103545 3.2739621 31.796627 3.6679688 29.347656 C 3.8140547 28.43948 4.0038191 27.781893 4.5117188 26.980469 C 4.8601329 26.430721 5.3882357 25.938735 6.0117188 25.640625 C 7.1357121 25.103231 8.5325549 25.27116 9.7617188 24.96875 C 10.013504 24.90673 11 24.445312 11 24.445312 C 11.505111 24.252634 12.287607 24.000554 12.738281 24 C 13.469672 23.999082 13.886822 24.22904 14.25 24.78125 C 14.613174 25.33346 15.01275 25.992873 15 28.019531 L 15 27.667969 L 15 27.019531 C 15.01275 24.992873 14.613174 24.33346 14.25 23.78125 C 13.886822 23.22904 13.469672 22.999082 12.738281 23 z M 51.261719 23 C 50.530329 22.999082 50.109272 23.22904 49.746094 23.78125 C 49.38292 24.33346 48.987246 24.992873 49 27.019531 L 49 27.667969 L 49 28.019531 C 48.987246 25.992873 49.38292 25.33346 49.746094 24.78125 C 50.109272 24.22904 50.530329 23.999082 51.261719 24 C 51.712393 24.000554 52.494888 24.252634 53 24.445312 C 53 24.445312 53.986413 24.90673 54.238281 24.96875 C 55.467445 25.27116 56.864287 25.103241 57.988281 25.640625 C 58.611763 25.938735 59.139867 26.430721 59.488281 26.980469 C 59.996181 27.781893 60.182045 28.43948 60.328125 29.347656 C 60.722212 31.797132 60.986478 34.104347 61 37.501953 C 61.000156 37.48626 60.99995 37.473177 61 37.457031 L 61 36.542969 C 60.9886 33.121135 60.723917 30.80773 60.328125 28.347656 C 60.182045 27.43948 59.996181 26.781893 59.488281 25.980469 C 59.139867 25.430721 58.611763 24.938735 57.988281 24.640625 C 56.864287 24.103241 55.467445 24.27116 54.238281 23.96875 C 53.986413 23.90673 53 23.445312 53 23.445312 C 52.494888 23.252634 51.712393 23.000554 51.261719 23 z"/>
</svg>

<svg xmlns="http://www.w3.org/2000/svg" width="64" height="64"><path style="opacity:.2" d="M31.975 6C16.627 6.029 4.172 18.736 4.172 34.478H8.4C8.4 20.571 18.347 10.106 31.906 10h.189C45.727 10 55.6 20.496 55.6 34.478h4.224C59.824 18.716 47.394 6 32.026 6h-.05z"/><circle style="opacity:.2" cx="39.51" cy="30.115" r="22" transform="rotate(12.584)"/><path style="fill:#3d3846" d="M31.975 5C16.627 5.029 4.172 17.736 4.172 33.478H8.4C8.4 19.571 18.347 9.106 31.906 9h.189C45.727 9 55.6 19.496 55.6 33.478h4.224C59.824 17.716 47.394 5 32.026 5h-.05z"/><path style="opacity:.1;fill:#fff" d="M31.977 5C16.629 5.029 4.172 17.735 4.172 33.477h.025C4.712 18.2 16.955 6.027 31.977 6h.05C47.068 6 59.285 18.181 59.8 33.477h.025C59.824 17.715 47.395 5 32.027 5h-.05z"/><path style="fill:#c01c28" d="M12.223 4S7.403 14.616 16.9 26.291l10.21-4.802C13.282 15.588 12.223 4 12.223 4zM51.734 4s4.82 10.617-4.678 22.292l-10.21-4.802C50.675 15.588 51.734 4 51.734 4z"/><path style="opacity:.1;fill:#fff" d="M12.223 4s-1.23 2.8-1.194 7.064C11.17 7.362 12.223 5 12.223 5s1.006 10.97 13.804 16.998l1.082-.51C13.281 15.586 12.223 4 12.223 4zm39.511 0s-1.058 11.586-14.886 17.488l1.082.51C50.728 15.969 51.734 5 51.734 5s1.055 2.362 1.194 6.064C52.964 6.8 51.734 4 51.734 4z"/><circle style="fill:#e8303a" cx="39.292" cy="29.139" r="22" transform="rotate(12.584)"/><path style="opacity:.1;fill:#fff" d="M32.432 15.002a22 22 0 0 0-1.557.025 22 22 0 0 0-20.348 17.18 22 22 0 0 0-.506 5.203 22 22 0 0 1 .506-4.203 22 22 0 0 1 20.348-17.18 22 22 0 0 1 5.918.5 22 22 0 0 1 17.168 21.24 22 22 0 0 1 .012.106 22 22 0 0 0-17.18-22.346 22 22 0 0 0-4.361-.525z"/><path style="opacity:.2" d="M12.738 24c-.45 0-1.233.253-1.738.445 0 0-.987.462-1.238.524-1.23.302-2.626.134-3.75.672a3.704 3.704 0 0 0-1.5 1.34c-.508.8-.698 1.458-.844 2.367-.396 2.46-.657 4.773-.668 8.195v.914c.01 3.422.272 5.735.668 8.195.146.909.336 1.566.844 2.368.348.55.876 1.041 1.5 1.34 1.124.537 2.52.369 3.75.671.251.062 1.238.54 1.238.54.504.19 1.297.428 1.738.429.732 0 1.149-.229 1.512-.781s.763-1.212.75-3.239V28.02c.013-2.027-.387-2.687-.75-3.239S13.47 24 12.738 24zm38.524 0c-.732 0-1.153.229-1.516.781s-.759 1.212-.746 3.239v19.96c-.013 2.027.383 2.687.746 3.239s.784.782 1.516.781c.44 0 1.234-.24 1.738-.43 0 0 .986-.477 1.238-.539 1.23-.302 2.626-.134 3.75-.672a3.704 3.704 0 0 0 1.5-1.34c.508-.8.694-1.458.84-2.367.396-2.46.661-4.773.672-8.195v-.914c-.011-3.422-.276-5.735-.672-8.195-.146-.909-.332-1.566-.84-2.368a3.704 3.704 0 0 0-1.5-1.34c-1.124-.537-2.52-.369-3.75-.671-.252-.062-1.238-.524-1.238-.524-.505-.192-1.288-.444-1.738-.445z"/><path style="fill:#3d3846" d="M52.999 23.444v27.125s.986-.477 1.238-.539c1.229-.302 2.627-.133 3.75-.67a3.704 3.704 0 0 0 1.5-1.34c.509-.802.697-1.459.843-2.367.395-2.46.658-4.774.669-8.195v-.915c-.012-3.422-.274-5.737-.67-8.197-.145-.908-.333-1.564-.841-2.365a3.704 3.704 0 0 0-1.5-1.34c-1.124-.537-2.522-.368-3.751-.67-.252-.063-1.238-.527-1.238-.527z"/><path style="fill:#9a9996" d="M51.262 23c-.732 0-1.152.228-1.515.78-.363.553-.76 1.214-.748 3.24l.001.647h-.001v18.666H49l-.001.647c-.013 2.027.385 2.688.748 3.24.363.553.783.78 1.515.78.441 0 1.232-.24 1.737-.431V23.444c-.506-.192-1.286-.443-1.737-.444z"/><circle style="opacity:.4" cx="29.5" cy="41.5" r="1.5"/><circle style="opacity:.4" cx="34.5" cy="41.5" r="1.5"/><path style="opacity:.2" d="M23 26a6 6 0 0 0-6 6 6 6 0 0 0 6 6 6 6 0 0 0 6-6 6 6 0 0 0-6-6zm18 0a6 6 0 0 0-6 6 6 6 0 0 0 6 6 6 6 0 0 0 6-6 6 6 0 0 0-6-6z"/><circle style="fill:#f6f5f4" cx="41" cy="31" r="6"/><circle style="fill:#241f31" cx="41" cy="30" r="3"/><circle style="fill:#f6f5f4" cx="23" cy="31" r="6"/><circle style="fill:#241f31" cx="23" cy="30" r="3"/><path style="fill:#3d3846" d="M11 23.444v27.125s-.987-.477-1.238-.539c-1.23-.302-2.627-.133-3.751-.67a3.704 3.704 0 0 1-1.5-1.34c-.508-.802-.696-1.459-.842-2.367-.396-2.46-.659-4.774-.669-8.195v-.915c.011-3.422.273-5.737.669-8.197.146-.908.334-1.564.842-2.365a3.704 3.704 0 0 1 1.5-1.34c1.124-.537 2.522-.368 3.75-.67.252-.063 1.239-.527 1.239-.527z"/><path style="fill:#9a9996" d="M12.737 23c.731 0 1.151.228 1.515.78.363.553.76 1.214.748 3.24l-.001.647V46.98c.014 2.027-.384 2.688-.747 3.24-.364.553-.784.78-1.515.78-.441 0-1.233-.24-1.737-.431V23.444c.505-.192 1.286-.443 1.737-.444z"/><path style="opacity:.4" d="M26.471 42.848c-5.668.084-4.286 2.533-5.352 4.471-.521.949.753-.108 2.187-1.429 2.255 3.485 6.391 6.783 13.644 4.168-6.465-.46-10.408-2.733-12.773-4.992 1.187-1.127 2.294-2.218 2.294-2.218z"/><path style="opacity:.1;fill:#fff" d="M12.738 23c-.45 0-1.233.253-1.738.445 0 0-.986.462-1.238.524-1.23.302-2.626.134-3.75.672a3.704 3.704 0 0 0-1.5 1.34c-.508.8-.698 1.458-.844 2.367-.396 2.46-.657 4.773-.668 8.195V37.5c.014-3.396.274-5.703.668-8.152.146-.909.336-1.566.844-2.368a3.704 3.704 0 0 1 1.5-1.34c1.124-.537 2.52-.369 3.75-.671.252-.062 1.238-.524 1.238-.524.505-.192 1.288-.444 1.738-.445.732 0 1.149.229 1.512.781s.763 1.212.75 3.239v-1c.013-2.027-.387-2.687-.75-3.239S13.47 23 12.738 23zm38.524 0c-.732 0-1.153.229-1.516.781s-.759 1.212-.746 3.239v1c-.013-2.027.383-2.687.746-3.239S50.53 24 51.262 24c.45 0 1.233.253 1.738.445 0 0 .986.462 1.238.524 1.23.302 2.626.134 3.75.672.624.298 1.152.79 1.5 1.34.508.8.694 1.458.84 2.367.394 2.45.658 4.756.672 8.154V36.543c-.011-3.422-.276-5.735-.672-8.195-.146-.909-.332-1.566-.84-2.368a3.704 3.704 0 0 0-1.5-1.34c-1.124-.537-2.52-.369-3.75-.671-.252-.062-1.238-.524-1.238-.524-.505-.192-1.288-.444-1.738-.445z"/></svg>
